X: 1
T: Con Cassidy's
M: 4/4
L: 1/8
R: strathspey
K: Amix
ed|:cAAG EGAB|cAA^g a^gae|cAAG EGAB|dBGB dged:|
|:~=c3 e gedB|=cBAb aged|=cB^cd efge|dBGB dged|
~=c3 e gedB|=cBAg abga|bgaf gage|dBGe ^gaed||
